X: 861
T: Sally Growler's Hornpipe
B: jims roots
M:4/4
L:1/8
Q: 1/4=100
K:G
V:1 
|:de |"G"gbfa gdBG |"C"cBce "G"dBGD | "C"EGce "G"DGBd | "A"^cbag "D"d^def |
"G"gbfa gdBG | "C"cBce "G"dBGD | "C"EGce "G"DGBd | "D"cAFD "G"G2:|
|:ef |"G"gdBd GBdg | bgdg Bdgb | "D"afdf Adfa | c'afd ^cdef |
"G"gdBd GBdg | bgdg Bdgb |"D" c'afd ^cdef |"G" g2 b2 g2:|
% abcbook-tune_id 6298c287c0e7b71fb23affb1


% abcbook-boost 0
% abcbook-tablature 
% abcbook-transpose 
% abcbook-lastupdated 1654178440058
% abcbook-soundfonts 
% abcbook-repeats 1


